X:1
T:Title
%%score ( 1 2 ) ( 3 4 )
L:1/8
Q:1/4=90
M:4/4
K:E
V:1 treble nm="Strings 1, Treble"
V:2 treble 
V:3 bass nm="Strings 1, Bass"
V:4 bass 
V:1
 z4 z2 B,E | [EG]3 [EA] [EG][EF]E[EG] | [GB]6 [FA][EG] | [DF]3 [DF] [DF][Dc][DB][DF] | [EG]6 B,E | %5
 [EG]3 [B,F] [B,E]B,[B,E][EG] | [GB]6 DE | [DF]3 [FA] [EG][B,F][B,E][B,D] | [B,E]6 [EG][FA] | %9
 [GB]3 [Ac] [GB][FA][EG][FA] | [GB]6 [EG][FA] | [GB]3 [GB] [GB][Ac][GB][EG] | %12
 F2- [DF-][DF-] [DF]2 B,E | [EG]3 [EA] [EG][EF]E[EG] | [GB]6 B,-[B,E] | [DF]3 [FA] [EG][DF]E[B,D] | %16
 [B,E]6 z2 |] %17
V:2
 x8 | x8 | x8 | x8 | x8 | x8 | z4 z2 B,2 | x8 | x8 | x8 | x8 | x8 | D2 z2 z4 | x8 | z4 z2 .D2 | %15
 x8 | x8 |] %17
V:3
 z4 z2 [E,G,]2 | [E,B,]3 [E,C] [E,B,][E,A,][E,G,][E,B,] | [E,E]6 B,-[E,B,] | %3
w: 1.~Why~|should~ a~ mor tal~ man~ com|plain~ At~ his~|
 [B,,B,]3 [B,,B,] [B,,B,][B,,B,][B,,B,][B,,B,] | [E,B,]6 [E,G,]2 | %5
w: tri als~ in~ this~ wick ed~|world?~ Nay,~|
 [E,B,]3 [E,A,] [E,G,][E,G,][E,G,][E,B,] | [E,E]6 B,-[E,B,] | %7
w: let~ us~ thank~ God's~ ho ly~|name~ For~ *|
 [B,,B,]3 [B,,B,] [B,,B,][B,,A,][B,,G,][B,,F,] | [E,G,]6 [E,B,]2 | %9
w: all~ His~ love~ o'er~ us~ un|furled.~ *|
 [E,E]3 [E,E] [E,E][E,B,][E,B,][E,B,] | [E,E][B,,E][G,,E][B,,E] [E,E]2 [E,B,]2 | %11
w: ||
 [E,E]3 [E,E] [E,E][E,E][E,E][E,B,] | [B,,B,]2 [B,,B,][B,,B,] [B,,B,]2 [E,G,]2 | %13
w: ||
 [E,B,]3 [E,C] [E,B,][E,A,][E,G,][E,B,] | [E,E]6 B,-[E,B,] | %15
w: ||
 [B,,B,]3 [B,,B,] [B,,B,][B,,A,][B,,G,][B,,F,] | [E,G,]6 z2 |] %17
w: ||
V:4
 x8 | x8 | z4 z2 .D,2 | x8 | x8 | x8 | z4 z2 .F,2 | x8 | x8 | x8 | x8 | x8 | x8 | x8 | z4 z2 .F,2 | %15
 x8 | x8 |] %17

